X: 13057
T: Finn O'Neill's Arrival To The Glenshee Ecocamp Yurt On The Occasion Of His 21st Birthday
R: jig
M: 6/8
K: Dmajor
D3|:GBG FAF|E2F GFE|DFA d2e|fAA AGF|
GBG FAF|E2F GFE|DFA d2e|fdc d3:|
|:e|fBB Bfe|fBB fed|cAA eAe|AaA aAa|
fBB Bfe|fBB fed|cAA afe|Adc d2:|

